symbols/web/paid/materialsymbolsoutlined/paid_wght700_40px.svg

<svg xmlns="http://www.w3.org/2000/svg" height="40" width="40"><path d="M18.417 31.875h3.041v-1.958q2.334-.292 3.813-1.563t1.479-3.729q0-2.042-1.167-3.521-1.166-1.479-4.208-2.646Q18.958 17.5 18 16.771q-.958-.729-.958-1.896 0-1 .77-1.583.771-.584 2.063-.584 1.25 0 2.146.605.896.604 1.396 1.77l2.75-1.166q-.709-1.792-1.855-2.709-1.145-.916-2.77-1.166V8.167H18.5v1.875q-2.25.458-3.396 1.833t-1.146 3.167q0 2.166 1.354 3.479 1.355 1.312 4.271 2.437 2.292.875 3.209 1.688.916.812.916 1.979 0 1.25-.896 1.917-.895.666-2.562.666-1.5 0-2.646-.875T16 23.708l-2.833 1.042q.75 2.167 2.145 3.417 1.396 1.25 3.105 1.666ZM20 37.833q-3.708 0-6.958-1.395-3.25-1.396-5.667-3.813-2.417-2.417-3.813-5.667Q2.167 23.708 2.167 20q0-3.75 1.395-7 1.396-3.25 3.813-5.646 2.417-2.396 5.667-3.812Q16.292 2.125 20 2.125q3.75 0 7 1.396t5.646 3.812Q35.042 9.75 36.458 13q1.417 3.25 1.417 7 0 3.708-1.417 6.958-1.416 3.25-3.812 5.667T27 36.438q-3.25 1.395-7 1.395Zm0-4.375q5.625 0 9.542-3.896 3.916-3.895 3.916-9.562 0-5.625-3.916-9.542Q25.625 6.542 20 6.542t-9.542 3.916Q6.542 14.375 6.542 20t3.896 9.542q3.895 3.916 9.562 3.916ZM20 20Z"/></svg>

<svg xmlns="http://www.w3.org/2000/svg" height="40" width="40"><path d="M18.417 31.875H21.458V29.917Q23.792 29.625 25.271 28.354Q26.75 27.083 26.75 24.625Q26.75 22.583 25.583 21.104Q24.417 19.625 21.375 18.458Q18.958 17.5 18 16.771Q17.042 16.042 17.042 14.875Q17.042 13.875 17.812 13.292Q18.583 12.708 19.875 12.708Q21.125 12.708 22.021 13.313Q22.917 13.917 23.417 15.083L26.167 13.917Q25.458 12.125 24.312 11.208Q23.167 10.292 21.542 10.042V8.167H18.5V10.042Q16.25 10.5 15.104 11.875Q13.958 13.25 13.958 15.042Q13.958 17.208 15.312 18.521Q16.667 19.833 19.583 20.958Q21.875 21.833 22.792 22.646Q23.708 23.458 23.708 24.625Q23.708 25.875 22.812 26.542Q21.917 27.208 20.25 27.208Q18.75 27.208 17.604 26.333Q16.458 25.458 16 23.708L13.167 24.75Q13.917 26.917 15.312 28.167Q16.708 29.417 18.417 29.833ZM20 37.833Q16.292 37.833 13.042 36.438Q9.792 35.042 7.375 32.625Q4.958 30.208 3.562 26.958Q2.167 23.708 2.167 20Q2.167 16.292 3.583 13.042Q5 9.792 7.396 7.396Q9.792 5 13.042 3.562Q16.292 2.125 20 2.125Q23.708 2.125 26.958 3.562Q30.208 5 32.604 7.396Q35 9.792 36.438 13.042Q37.875 16.292 37.875 20Q37.875 23.708 36.438 26.958Q35 30.208 32.604 32.604Q30.208 35 26.958 36.417Q23.708 37.833 20 37.833ZM20 20Q20 20 20 20Q20 20 20 20Q20 20 20 20Q20 20 20 20Q20 20 20 20Q20 20 20 20Q20 20 20 20Q20 20 20 20ZM20 33.458Q25.583 33.458 29.521 29.542Q33.458 25.625 33.458 20Q33.458 14.417 29.521 10.479Q25.583 6.542 20 6.542Q14.458 6.542 10.5 10.458Q6.542 14.375 6.542 20Q6.542 25.625 10.479 29.542Q14.417 33.458 20 33.458Z"/></svg>
